source/lck.svg

<svg xmlns="http://www.w3.org/2000/svg" width="24" height="24" viewBox="0 0 24 24"><path d="M8 10v-4c0-2.206 1.794-4 4-4 2.205 0 4 1.794 4 4v1h2v-1c0-3.313-2.687-6-6-6s-6 2.687-6 6v4h-3v14h18v-14h-13z"/></svg>

<svg width="24" height="24" viewBox="0 0 24 24" fill="none" xmlns="http://www.w3.org/2000/svg">
<path d="M8 10V6C8 3.794 9.794 2 12 2C14.205 2 16 3.794 16 6V7H18V6C18 2.687 15.313 0 12 0C8.687 0 6 2.687 6 6V10H3V24H21V10H8Z" fill="white"/>
</svg>
